X: 43165
T: Winter Sky
R: waltz
M: 3/4
K: Dmajor
D2 E2 F2|A6|d2 c2 A2|F6|
d2 c2 A2|F6|B2 A2 D2|E4 FE|
D2 E2 F2|A6|d2 c2 A2|F6|
d2 c2 A2|F2 D2 A2|GF GB AF|D6||
e4 d2|f4 d2|fg a2 f2|e4 dc|B4 d2|
A2 B2 d2|fe fg af|e4 dc|B4 d2|
A4 d2|g2 f2 d2|e4 dc|BA Bc de|
d2 c2 A2|GF GB AF|D6||

